src/icons/sketch.svg

<svg viewBox="0 0 24 24" xmlns="http://www.w3.org/2000/svg">
  <path
    d="M15.7043 9.22098H18.4833L13.8513 15.705M10.1463 9.22098H13.8513L11.9993 16.631M5.51533 9.22098H8.29433L10.1463 15.705M14.7793 4.58998H16.6313L18.4843 7.36898H15.7043M11.0743 4.58998H12.9263L13.8523 7.36898H10.1473M7.36733 4.58998H9.22033L8.29433 7.36998H5.51433M6.44133 2.73898L2.73633 8.29398L11.9993 21.263L21.2613 8.29498L17.5563 2.73798L6.44133 2.73898Z"
    fill="#FFC107"
  />
</svg>

<svg viewBox="0 0 24 24" xmlns="http://www.w3.org/2000/svg">
  <path
    d="M15.705 9.221h2.779l-4.632 6.484m-3.705-6.484h3.705L12 16.631m-6.484-7.41h2.779l1.852 6.484M14.78 4.59h1.852l1.853 2.779h-2.78m-4.63-2.779h1.852l.926 2.779h-3.705M7.368 4.59h1.853l-.926 2.78h-2.78m.927-4.631L2.737 8.294 12 21.263l9.262-12.968-3.705-5.557z"
    style="fill: #ffc107; stroke-width: 0.92627"
  />
</svg>
